X: 20043
T: Jimmy Findlater
R: reel
M: 4/4
K: Amajor
|:e|A2Adc3/2B/Ac|e3/2c/ace2ef|f3/2e/f/a3/2e3/2c/Ac|e3/2d/d/c3/2B2Be|
A2Adc3/2B/Ac|e3/2c/ace2ef|f3/2e/f/a3/2e3/2c/dB|A4A3:|
|:e|f3/2e/fae3/2c/dB|A3/2B/cde2ef|f3/2e/f/a3/2e3/2c/A{d}c|e3/2d/d/c3/2B2Be|
f3/2e/fae3/2c/dB|A3/2B/cde2ef|f3/2e/f/a3/2e3/2c/dB|A4A3:|
|:e|A3/2B/cddcce|f3/2e/dae2ef|f3/2e/f/a3/2e3/2c/Ac|e3/2d/d/c3/2B2Be|
A3/2B/cddcce|f3/2e/dae2ef|f3/2e/f/a3/2e3/2c/dB|A4A3:|
|:e|a2ea3/2f/A/a3/2|fAf/a3/2e2ef|f3/2e//a3/2e3/2c/Ac|e3/2d/d/c3/2B2Be|
A3/2B/cddcce|f3/2e/dae2ef|f3/2e/f/a3/2e3/2c/dB|A4A3:|

